svg/UnitedNationsOCHA-Humanitarian/disaster_tornado_icon_box.svg

<svg xmlns="http://www.w3.org/2000/svg" viewBox="0 0 32 32" enable-background="new 0 0 32 32"><path fill="#407cca" d="m25.6 0h-19.2c-3.52 0-6.4 2.88-6.4 6.4v19.2c0 3.52 2.88 6.4 6.4 6.4h19.2c3.521 0 6.4-2.88 6.4-6.4v-19.2c0-3.52-2.88-6.4-6.4-6.4m-2.847 14.5c1.414 1.928.839 3.15-3.75 5.25-8.94 4.091-.942 4.716-3.748 8.25.369-.572.644-1.969-2.252-3-4.622-1.65.75-6.75.75-6.75s2.705-2.837-2.25-4.5c-7.148-2.4-6.761-6.704-6.75-6.751 1.271 1.773 5.7 2.16 11.252 2.251 4.927-.082 9.479-.862 11.248-2.251-.391 3.954-6.352 4.97-4.5 7.501m-6.748-6c-3.127 0-10.577-.63-11.252-2.249 1.432-1.103 6.234-2.251 11.252-2.251 5.523 0 10.321 1.022 11.248 2.251-.798 1.399-8.125 2.249-11.248 2.249"/></svg>

<?xml version="1.0" encoding="utf-8"?>
<!-- Generator: Adobe Illustrator 16.0.3, SVG Export Plug-In . SVG Version: 6.00 Build 0)  -->
<!DOCTYPE svg PUBLIC "-//W3C//DTD SVG 1.1//EN" "http://www.w3.org/Graphics/SVG/1.1/DTD/svg11.dtd">
<svg version="1.1" id="Layer_1" xmlns="http://www.w3.org/2000/svg" xmlns:xlink="http://www.w3.org/1999/xlink" x="0px" y="0px"
	 width="32px" height="32px" viewBox="0 0 32 32" enable-background="new 0 0 32 32" xml:space="preserve">
<path fill="#407CCA" d="M25.6,0H6.4C2.88,0,0,2.88,0,6.4v19.2C0,29.12,2.88,32,6.4,32h19.2c3.521,0,6.4-2.88,6.4-6.4V6.4
	C32,2.88,29.12,0,25.6,0z M22.753,14.5c1.414,1.928,0.839,3.15-3.75,5.25c-8.94,4.091-0.942,4.716-3.748,8.25
	c0.369-0.572,0.644-1.969-2.252-3c-4.622-1.65,0.75-6.75,0.75-6.75s2.705-2.837-2.25-4.5c-7.148-2.4-6.761-6.704-6.75-6.751
	c1.271,1.773,5.7,2.16,11.252,2.251c4.927-0.082,9.479-0.862,11.248-2.251C26.862,10.953,20.901,11.969,22.753,14.5z M16.005,8.5
	c-3.127,0-10.577-0.63-11.252-2.249C6.185,5.148,10.987,4,16.005,4c5.523,0,10.321,1.022,11.248,2.251
	C26.455,7.65,19.128,8.5,16.005,8.5z"/>
</svg>
